X:1
T:W. C. Filby
T:St. Silas
%%score { ( 1 2 ) | ( 3 4 ) }
L:1/8
Q:1/4=184
M:4/2
K:Bb
V:1 treble 
V:2 treble 
V:3 bass 
V:4 bass 
V:1
"^Presto" D4 | B4 A4 G4 ^F4 | G6 D2 D4 D4 | F6 E2 D4 D4 | F6 E2 D4 D4 | d4 c4 B4 A4 | A6 B2 B4 B4 | %7
 A6 ^F2 G4 G4 | E6 D2 D4 D4 | ^F4 G4 A4 B4 | d6 c2 B4 B4 | e4 c4 _A4 G4 | B6 A2 G4 | G8 G8 |] %14
V:2
 D4 | D4 C4 D4 D4 | D6 B,2 B,4 B,4 | B,6 B,2 A,4 B,4 | B,4 B,4 B,4 C4 | B,4 E4 D4 ^F4 | %6
 ^F6 G2 G4 D4 | C6 C2 B,4 B,4 | A,6 A,2 A,4 D4 | D4 D4 ^F4 G4 | A6 A2 G4 D4 | E4 E4 E4 =E4 | %12
 D4 ^F4 G4 | E8 D8 |] %14
V:3
 D,4 | D,4 ^F,4 G,4 A,4 | B,6 G,2 G,4 G,4 | A,6 G,2 ^F,4 G,4 | G,4 G,4 F,4 ^F,4 | G,4 G,4 G,4 C4 | %6
 C6 B,2 B,4 G,4 | ^F,6 A,2 G,4 G,4 | G,6 ^F,2 ^F,4 ^F,4 | A,4 G,4 C4 D4 | D6 D2 D4 B,4 | %11
 _A,4 A,4 C4 B,4 | G,4 C4 B,4 | C8 =B,8 |] %14
V:4
 D,4 | G,,4 A,,4 B,,4 D,4 | G,6 G,,2 G,,4 G,,4 | C,4 C,4 D,4 G,4 | E,4 E,4 B,,4 D,4 | %5
 G,,4 C,4 D,4 D,4 | G,4 G,4 G,4 G,,4 | D,6 D,2 E,4 E,4 | C,6 =F,2 =F,4 =F,4 | C,4 B,,4 A,,4 G,,4 | %10
 ^F,,4 F,,4 G,,4 G,4 | C,4 C,4 C,4 ^C,4 | D,4 D,4 G,,4 | C,8 G,,8 |] %14

